src/assets/filled/Bank.svg

<svg width="24" height="24" viewBox="0 0 24 24"  xmlns="http://www.w3.org/2000/svg">
<path d="M22 19V22H2V19C2 18.45 2.45 18 3 18H21C21.55 18 22 18.45 22 19Z"  stroke="white" stroke-width="1.5" stroke-miterlimit="10" stroke-linecap="round" stroke-linejoin="round"/>
<path d="M7 11H5V18H7V11Z" />
<path d="M11 11H9V18H11V11Z" />
<path d="M15 11H13V18H15V11Z" />
<path d="M19 11H17V18H19V11Z" />
<path d="M23 22.75H1C0.59 22.75 0.25 22.41 0.25 22C0.25 21.59 0.59 21.25 1 21.25H23C23.41 21.25 23.75 21.59 23.75 22C23.75 22.41 23.41 22.75 23 22.75Z" />
<path d="M21.37 5.74984L12.37 2.14984C12.17 2.06984 11.83 2.06984 11.63 2.14984L2.63 5.74984C2.28 5.88984 2 6.29984 2 6.67984V9.99984C2 10.5498 2.45 10.9998 3 10.9998H21C21.55 10.9998 22 10.5498 22 9.99984V6.67984C22 6.29984 21.72 5.88984 21.37 5.74984ZM12 8.49984C11.17 8.49984 10.5 7.82984 10.5 6.99984C10.5 6.16984 11.17 5.49984 12 5.49984C12.83 5.49984 13.5 6.16984 13.5 6.99984C13.5 7.82984 12.83 8.49984 12 8.49984Z" />
</svg>

<?xml version="1.0" encoding="UTF-8"?>
<svg width="24" height="24" viewBox="0 0 24 24" xmlns="http://www.w3.org/2000/svg">
 <path d="m22 19v3h-20v-3c0-0.55 0.45-1 1-1h18c0.55 0 1 0.45 1 1z" stroke="#fff" stroke-linecap="round" stroke-linejoin="round" stroke-miterlimit="10" stroke-width="1.5"/>
 <path d="m7 11h-2v7h2v-7z"/>
 <path d="m11 11h-2v7h2v-7z"/>
 <path d="m15 11h-2v7h2v-7z"/>
 <path d="m19 11h-2v7h2v-7z"/>
 <path d="m23 22.75h-22c-0.41 0-0.75-0.34-0.75-0.75s0.34-0.75 0.75-0.75h22c0.41 0 0.75 0.34 0.75 0.75s-0.34 0.75-0.75 0.75z"/>
 <path d="m21.37 5.7498-9-3.6c-0.2-0.08-0.54-0.08-0.74 0l-9 3.6c-0.35 0.14-0.63 0.55-0.63 0.93v3.32c0 0.54996 0.45 0.99996 1 0.99996h18c0.55 0 1-0.45 1-0.99996v-3.32c0-0.38-0.28-0.79-0.63-0.93zm-9.37 2.75c-0.83 0-1.5-0.67-1.5-1.5s0.67-1.5 1.5-1.5 1.5 0.67 1.5 1.5-0.67 1.5-1.5 1.5z"/>
</svg>
